admin/images/meshy-wordmark-light.svg

<svg width="346" height="136" viewBox="0 0 346 136" fill="none" xmlns="http://www.w3.org/2000/svg">
<path d="M23.8951 15L26.5617 22.2545L33.7682 24.9389L26.5617 27.6234L23.8951 34.8779L21.2285 27.6234L14.022 24.9389L21.2285 22.2545L23.8951 15Z" fill="white"/>
<path d="M96.5923 61.3633C93.5791 57.3244 92.9795 51.2104 94.5895 45.7433C95.2701 43.4319 96.3457 41.2362 97.8008 39.3618C98.5436 38.4051 99.3853 37.532 100.324 36.77L100.311 36.752C98.3116 37.5175 96.4993 38.6855 94.9115 40.1247C92.2208 42.5637 90.1746 45.7816 88.9559 49.1395C86.4643 56.0046 87.4315 63.455 93.4216 66.0313L97.4432 62.3784C97.1409 62.0572 96.8572 61.7184 96.5923 61.3633Z" fill="white"/>
<path fill-rule="evenodd" clip-rule="evenodd" d="M33.3125 40.1602C31.438 42.9589 29.8902 45.8817 28.625 48.8504C26.0574 54.8748 24.5975 61.6913 25.0625 68.2607C25.5319 78.2887 29.8418 85.3086 37 89.1307C40.9024 91.2143 45.9947 92.3065 50 91.9834C47.9363 94.5656 46.9878 95.5404 44.9375 97.262L44.7034 97.2377C39.7216 96.7194 33.1117 96.0317 31.25 86.8897C25.9922 89.1307 23.4582 96.965 24.4375 101.576C25.1104 104.746 26.977 107.259 29.1875 109.142C30.5361 110.29 32.1027 111.268 33.8125 112.093C37.0446 117.28 51.1954 120.071 55.125 120.428C78.7777 122.942 99.5439 116.913 110.625 107.293C116.163 102.485 120.098 95.9673 119 88.6751C118.266 83.8021 115.444 79.6317 111.125 76.2025C112.057 75.5164 112.931 74.7575 113.75 73.9297C118.537 69.0933 120.878 62.4028 121 55.5447C121.245 41.7913 112.799 26.3436 95.125 18.7787C72.7617 8.63474 46.3198 20.0855 34 39.1945L33.8941 39.3482C33.7202 39.6006 33.5446 39.8554 33.375 40.1122L33.3125 40.1602ZM92.8201 23.9124C89.7636 22.52 86.4545 21.523 82.9855 21.0199L82.986 21.0181L82.9519 21.015C65.4484 18.493 47.5878 27.7601 38.1758 43.0553C46.8221 31.4479 62.0498 24.3679 75.4303 24.948C69.3512 45.4106 53.1822 59.616 38.639 55.5778C39.1979 56.6136 40.2919 57.3762 41.639 57.9297C39.6422 57.6009 37.7782 56.9602 36.1367 55.9806C41.7759 62.6836 58.9131 61.8251 68.2245 53.7807C73.1749 49.5039 77.0578 43.8619 79.6735 38.2823C75.6868 50.2935 67.8868 60.7026 55.0581 63.7858C53.0214 64.2753 51.1496 65.5052 50.8608 67.58C50.5682 69.6826 52.2381 71.2529 54.0022 72.4338C57.0527 74.4759 57.8209 77.3154 58.3032 79.0982C58.4018 79.4624 58.4884 79.7826 58.5801 80.0428C58.6016 80.3602 58.6152 80.6547 58.6218 80.9281C57.5584 81.1132 56.5034 81.2677 55.4608 81.3887C54.6721 79.923 53.3729 78.6525 51.7459 77.5835C48.5027 78.4246 43.9116 78.9932 39.7962 78.1084C37.8398 77.6877 36.2951 77.1487 35.0898 76.5475C32.9956 74.4508 31.4706 71.6411 30.7001 67.9885C31.4789 84.7402 44.4369 88.2581 58.9523 86.4747C57.6939 91.8902 56.0636 95.5379 52.7342 98.1439C55.2557 98.3347 57.8515 98.3246 60.4587 98.1376C62.7251 95.3304 63.5039 90.3689 64.1695 86.1288C64.3225 85.1543 64.4695 84.2179 64.6272 83.3545C64.6965 82.9622 64.7725 82.579 64.855 82.2049C64.9168 81.9201 64.9815 81.647 65.049 81.3871C66.669 75.0213 70.2204 71.45 74.0823 70.0875C84.6718 67.9501 84.3838 89.3218 74.8694 95.1891C74.665 95.306 74.4576 95.4241 74.2472 95.5434L74.2457 95.5441C83.8591 94.8573 98.9306 89.2645 95.3006 78.4495C94.9728 77.2329 94.5776 76.05 94.1757 74.9333L94.21 74.9669C121.144 77.6159 124.161 37.2772 92.8201 23.9124ZM55.6972 114.843C100.933 119.67 131.935 91.2976 101.281 76.7265C112.822 90.0762 101.451 102.2 83.489 108.862C90.1656 104.549 95.647 97.7938 98.9486 88.0023C78.2669 107.568 29.8691 108.975 30.9346 94.7803C22.5427 111.27 63.3665 116.299 86.4501 101.713C75.1537 111.532 64.6022 113.541 50.8321 114.201C52.4487 114.481 54.073 114.696 55.6972 114.843ZM44.342 51.4355C44.342 51.4355 45.4058 52.0769 46.9305 51.2597C49.3937 49.9393 49.9683 41.985 49.9683 37.3393C49.9683 36.0843 48.4239 36.0625 48.4239 36.0625C48.3809 36.066 48.3377 36.0701 48.2944 36.0746C46.4959 36.2636 45.1156 37.2647 45.2113 38.3105C45.5678 42.2031 44.8921 47.0694 43.9942 50.2319C43.8671 50.6795 44.0059 51.0978 44.342 51.4355ZM58.2477 45.0413C58.2477 45.0413 59.3115 45.6828 60.8362 44.8655C63.2993 43.5452 63.874 35.5908 63.874 30.9451C63.874 29.6901 62.3296 29.6683 62.3296 29.6683C62.2866 29.6719 62.2434 29.6759 62.2 29.6805C60.4015 29.8695 59.0212 30.8705 59.117 31.9163C59.4734 35.8089 58.7977 40.6752 57.8998 43.8377C57.7727 44.2853 57.9116 44.7036 58.2477 45.0413Z" fill="white"/>
<path d="M14.1488 37.938L12.6286 33.7733L11.1084 37.938L7 39.479L11.1084 41.0201L12.6286 45.1847L14.1488 41.0201L18.2572 39.479L14.1488 37.938Z" fill="white"/>
<path d="M148.48 109V26.68H163.824L170.432 69.352L170.992 73.72H171.216L171.776 69.352L178.384 26.68H193.728V109H182.528V53.784H181.856L181.408 57.256L174.24 109H167.968L160.8 57.256L160.352 53.784H159.68V109H148.48ZM215.05 109.896C210.533 109.896 206.967 108.347 204.354 105.248C201.778 102.112 200.49 98.2853 200.49 93.768V62.968C200.49 58.1893 201.778 54.3067 204.354 51.32C206.93 48.3333 210.533 46.84 215.162 46.84C218.186 46.84 220.781 47.5307 222.946 48.912C225.149 50.2933 226.829 52.1787 227.986 54.568C229.143 56.92 229.722 59.608 229.722 62.632V80.44H211.018V93.768C211.018 95.2987 211.354 96.7173 212.026 98.024C212.735 99.2933 213.781 99.928 215.162 99.928C216.618 99.928 217.645 99.3307 218.242 98.136C218.877 96.9413 219.194 95.4853 219.194 93.768V87.048H229.722V94.104C229.722 98.8453 228.434 102.672 225.858 105.584C223.319 108.459 219.717 109.896 215.05 109.896ZM211.018 71.592H219.194V62.968C219.194 61.288 218.895 59.832 218.298 58.6C217.738 57.3307 216.693 56.696 215.162 56.696C213.743 56.696 212.698 57.3493 212.026 58.656C211.354 59.9253 211.018 61.3627 211.018 62.968V71.592ZM248.972 109.896C246.321 109.896 244.007 109.448 242.028 108.552C240.049 107.656 238.407 106.387 237.1 104.744C235.793 103.064 234.804 101.085 234.132 98.808C233.497 96.5307 233.18 93.992 233.18 91.192H243.708C243.708 93.6933 244.1 95.8773 244.884 97.744C245.705 99.5733 247.068 100.488 248.972 100.488C250.615 100.488 251.679 99.7973 252.164 98.416C252.649 97.0347 252.892 95.448 252.892 93.656C252.892 91.5653 252.071 89.4373 250.428 87.272C248.823 85.0693 247.143 83.1093 245.388 81.392C242.364 78.4053 239.844 75.456 237.828 72.544C235.849 69.632 234.86 66.216 234.86 62.296C234.86 57.6667 236.073 53.9333 238.5 51.096C240.927 48.2587 244.38 46.84 248.86 46.84C251.548 46.84 253.807 47.1947 255.636 47.904C257.503 48.6133 258.996 49.6773 260.116 51.096C261.236 52.5147 262.039 54.2507 262.524 56.304C263.047 58.3573 263.308 60.728 263.308 63.416H252.78C252.78 61.4747 252.575 59.7947 252.164 58.376C251.753 56.9573 250.727 56.248 249.084 56.248C247.74 56.248 246.788 56.8267 246.228 57.984C245.668 59.104 245.388 60.5413 245.388 62.296C245.388 64.3493 245.873 66.1787 246.844 67.784C247.852 69.352 249.513 71.2747 251.828 73.552C254.74 76.3893 257.391 79.4133 259.78 82.624C262.207 85.8347 263.42 89.3253 263.42 93.096C263.42 95.56 263.084 97.8187 262.412 99.872C261.777 101.925 260.825 103.699 259.556 105.192C258.324 106.685 256.812 107.843 255.02 108.664C253.265 109.485 251.249 109.896 248.972 109.896ZM267.878 109V26.68H279.19V51.936C280.161 50.928 281.598 49.8267 283.502 48.632C285.406 47.4373 287.217 46.84 288.934 46.84C290.801 46.84 292.369 47.3813 293.638 48.464C294.907 49.5467 295.859 51.0027 296.494 52.832C297.129 54.624 297.446 56.6213 297.446 58.824V109H286.134V61.176C286.134 60.056 285.873 59.16 285.35 58.488C284.865 57.7787 284.286 57.424 283.614 57.424C282.83 57.424 281.897 57.872 280.814 58.768C279.731 59.6267 279.19 60.5973 279.19 61.68V109H267.878ZM305.281 130.952C304.796 130.952 304.217 130.933 303.545 130.896C302.873 130.859 302.22 130.784 301.585 130.672V120.648C301.697 120.685 301.996 120.723 302.481 120.76C302.966 120.835 303.284 120.872 303.433 120.872C305.524 120.872 307.204 120.312 308.473 119.192C309.78 118.072 310.694 116.579 311.217 114.712C311.404 114.152 311.497 113.499 311.497 112.752C311.534 112.005 311.553 111.352 311.553 110.792L301.137 47.736H312.225L316.705 85.928L316.929 90.184H317.377L317.601 85.928L322.081 47.736H333.169L322.305 113.592C321.894 116.877 320.961 119.827 319.505 122.44C318.086 125.091 316.182 127.163 313.793 128.656C311.404 130.187 308.566 130.952 305.281 130.952Z" fill="white"/>
</svg>

<svg xmlns="http://www.w3.org/2000/svg" fill="none" viewBox="0 0 346 136"><path fill="#fff" d="m23.895 15 2.667 7.255 7.206 2.684-7.206 2.684-2.667 7.255-2.666-7.255-7.207-2.684 7.207-2.684L23.895 15zM96.592 61.363c-3.013-4.039-3.612-10.153-2.002-15.62.68-2.311 1.756-4.507 3.21-6.381a15.843 15.843 0 0 1 2.524-2.592l-.013-.018c-2 .765-3.812 1.933-5.4 3.373-2.69 2.439-4.736 5.657-5.955 9.014-2.492 6.866-1.525 14.316 4.466 16.892l4.021-3.653c-.302-.32-.586-.66-.85-1.015z"/><path fill="#fff" fill-rule="evenodd" d="M33.313 40.16a52.783 52.783 0 0 0-4.688 8.69c-2.568 6.025-4.027 12.841-3.563 19.41.47 10.029 4.78 17.049 11.938 20.87 3.902 2.084 8.995 3.177 13 2.853-2.064 2.583-3.012 3.557-5.063 5.279l-.234-.024c-4.981-.519-11.591-1.206-13.453-10.348-5.258 2.24-7.792 10.075-6.813 14.686.673 3.17 2.54 5.683 4.75 7.566 1.35 1.148 2.916 2.126 4.625 2.951 3.233 5.187 17.383 7.978 21.313 8.335 23.653 2.514 44.419-3.515 55.5-13.135 5.538-4.808 9.473-11.326 8.375-18.618-.734-4.873-3.556-9.043-7.875-12.472a22.226 22.226 0 0 0 2.625-2.273c4.787-4.837 7.128-11.527 7.25-18.385.245-13.754-8.201-29.201-25.875-36.766C72.762 8.635 46.32 20.085 34 39.194l-.106.154c-.174.253-.35.507-.519.764l-.063.048zM92.82 23.912a36.306 36.306 0 0 0-9.834-2.892v-.002l-.034-.003c-17.504-2.522-35.364 6.745-44.776 22.04C46.822 31.448 62.05 24.368 75.43 24.948c-6.079 20.463-22.248 34.668-36.791 30.63.559 1.036 1.653 1.798 3 2.352-1.997-.33-3.86-.97-5.502-1.95 5.639 6.704 22.776 5.845 32.088-2.2 4.95-4.276 8.833-9.918 11.449-15.498-3.987 12.012-11.787 22.42-24.616 25.504-2.037.49-3.908 1.72-4.197 3.794-.293 2.103 1.377 3.673 3.141 4.854 3.05 2.042 3.819 4.881 4.301 6.664.099.364.185.685.277.945.022.317.035.612.042.885-1.064.185-2.119.34-3.161.46-.789-1.465-2.088-2.736-3.715-3.805-3.243.842-7.834 1.41-11.95.525-1.956-.42-3.5-.96-4.706-1.56-2.094-2.097-3.62-4.907-4.39-8.56.779 16.752 13.737 20.27 28.252 18.487-1.258 5.415-2.888 9.063-6.218 11.669 2.522.19 5.117.18 7.725-.006 2.266-2.808 3.045-7.77 3.71-12.01.154-.974.3-1.91.458-2.773a27.771 27.771 0 0 1 .422-1.968c1.62-6.366 5.171-9.937 9.033-11.3 10.59-2.137 10.302 19.235.787 25.102l-.622.354-.001.001c9.613-.687 24.685-6.28 21.055-17.094a44.982 44.982 0 0 0-1.125-3.517l.034.034c26.934 2.649 29.951-37.69-1.39-51.055zm-37.123 90.931c45.236 4.827 76.238-23.545 45.584-38.117 11.541 13.35.17 25.474-17.792 32.136 6.677-4.313 12.158-11.068 15.46-20.86-20.682 19.566-69.08 20.973-68.014 6.778-8.392 16.49 32.431 21.519 55.515 6.933-11.296 9.819-21.848 11.828-35.618 12.488 1.617.28 3.241.495 4.865.642zM44.342 51.435s1.064.642 2.589-.175c2.463-1.32 3.037-9.275 3.037-13.92 0-1.256-1.544-1.278-1.544-1.278a5.827 5.827 0 0 0-.13.013c-1.798.189-3.178 1.19-3.083 2.235.357 3.893-.319 8.76-1.217 11.922-.127.447.012.866.348 1.203zm13.906-6.394s1.064.642 2.588-.175c2.463-1.32 3.038-9.275 3.038-13.92 0-1.256-1.544-1.278-1.544-1.278a5.895 5.895 0 0 0-.13.012c-1.799.19-3.179 1.19-3.083 2.236.356 3.893-.32 8.76-1.217 11.922-.127.447.012.866.348 1.203z" clip-rule="evenodd"/><path fill="#fff" d="m14.149 37.938-1.52-4.165-1.52 4.165L7 39.479l4.108 1.541 1.52 4.165 1.52-4.165 4.11-1.541-4.11-1.541zM148.48 109V26.68h15.344l6.608 42.672.56 4.368h.224l.56-4.368 6.608-42.672h15.344V109h-11.2V53.784h-.672l-.448 3.472L174.24 109h-6.272L160.8 57.256l-.448-3.472h-.672V109h-11.2zm66.57.896c-4.517 0-8.083-1.549-10.696-4.648-2.576-3.136-3.864-6.963-3.864-11.48v-30.8c0-4.779 1.288-8.661 3.864-11.648 2.576-2.987 6.179-4.48 10.808-4.48 3.024 0 5.619.69 7.784 2.072 2.203 1.381 3.883 3.267 5.04 5.656 1.157 2.352 1.736 5.04 1.736 8.064V80.44h-18.704v13.328c0 1.53.336 2.95 1.008 4.256.709 1.27 1.755 1.904 3.136 1.904 1.456 0 2.483-.597 3.08-1.792.635-1.195.952-2.65.952-4.368v-6.72h10.528v7.056c0 4.741-1.288 8.568-3.864 11.48-2.539 2.875-6.141 4.312-10.808 4.312zm-4.032-38.304h8.176v-8.624c0-1.68-.299-3.136-.896-4.368-.56-1.27-1.605-1.904-3.136-1.904-1.419 0-2.464.653-3.136 1.96-.672 1.27-1.008 2.707-1.008 4.312v8.624zm37.954 38.304c-2.651 0-4.965-.448-6.944-1.344-1.979-.896-3.621-2.165-4.928-3.808-1.307-1.68-2.296-3.659-2.968-5.936-.635-2.277-.952-4.816-.952-7.616h10.528c0 2.501.392 4.685 1.176 6.552.821 1.83 2.184 2.744 4.088 2.744 1.643 0 2.707-.69 3.192-2.072.485-1.381.728-2.968.728-4.76 0-2.09-.821-4.219-2.464-6.384-1.605-2.203-3.285-4.163-5.04-5.88-3.024-2.987-5.544-5.936-7.56-8.848-1.979-2.912-2.968-6.328-2.968-10.248 0-4.63 1.213-8.363 3.64-11.2 2.427-2.837 5.88-4.256 10.36-4.256 2.688 0 4.947.355 6.776 1.064 1.867.71 3.36 1.773 4.48 3.192 1.12 1.419 1.923 3.155 2.408 5.208.523 2.053.784 4.424.784 7.112H252.78c0-1.941-.205-3.621-.616-5.04-.411-1.419-1.437-2.128-3.08-2.128-1.344 0-2.296.579-2.856 1.736-.56 1.12-.84 2.557-.84 4.312 0 2.053.485 3.883 1.456 5.488 1.008 1.568 2.669 3.49 4.984 5.768a75.986 75.986 0 0 1 7.952 9.072c2.427 3.21 3.64 6.701 3.64 10.472 0 2.464-.336 4.723-1.008 6.776-.635 2.053-1.587 3.827-2.856 5.32a12.608 12.608 0 0 1-4.536 3.472c-1.755.821-3.771 1.232-6.048 1.232zm18.906-.896V26.68h11.312v25.256c.971-1.008 2.408-2.11 4.312-3.304 1.904-1.195 3.715-1.792 5.432-1.792 1.867 0 3.435.541 4.704 1.624 1.269 1.083 2.221 2.539 2.856 4.368.635 1.792.952 3.79.952 5.992V109h-11.312V61.176c0-1.12-.261-2.016-.784-2.688-.485-.71-1.064-1.064-1.736-1.064-.784 0-1.717.448-2.8 1.344-1.083.859-1.624 1.83-1.624 2.912V109h-11.312zm37.403 21.952c-.485 0-1.064-.019-1.736-.056a16.493 16.493 0 0 1-1.96-.224v-10.024c.112.037.411.075.896.112.485.075.803.112.952.112 2.091 0 3.771-.56 5.04-1.68 1.307-1.12 2.221-2.613 2.744-4.48.187-.56.28-1.213.28-1.96.037-.747.056-1.4.056-1.96l-10.416-63.056h11.088l4.48 38.192.224 4.256h.448l.224-4.256 4.48-38.192h11.088l-10.864 65.856c-.411 3.285-1.344 6.235-2.8 8.848-1.419 2.651-3.323 4.723-5.712 6.216-2.389 1.531-5.227 2.296-8.512 2.296z"/></svg>
